app/dist/common/images/rci-hospitality-holdings.svg

<svg height="18" width="18" xmlns="http://www.w3.org/2000/svg"><path d="m0 0h18v18h-18z" fill="#f0f3fa"/><path d="m9.54 14.98-.54.02a6 6 0 0 1 -4.8-9.6h5.52a2.94 2.94 0 0 1 2.88 3c0 1.66-1.29 3-2.88 3h-.32l1.63 1.62a4.5 4.5 0 0 0 -3.93-8.1h-2.5a5.98 5.98 0 0 1 10.4 4.08 6 6 0 0 1 -4.63 5.84l-1.24-1.34-.04-.05-3.25-3.45h3.8c.76 0 1.36-.67 1.36-1.5s-.6-1.5-1.35-1.5h-4.68a4.5 4.5 0 0 0 3.28 6.44z" fill="#c12025"/></svg>

<!-- by TradingView --><svg xmlns="http://www.w3.org/2000/svg" width="18" height="18"><path fill="#F0F3FA" d="M0 0h18v18H0z"/><path d="M9.54 14.98L9 15a6 6 0 01-4.8-9.6h5.52a2.94 2.94 0 012.88 3c0 1.66-1.29 3-2.88 3H9.4l1.63 1.62a4.5 4.5 0 00-3.93-8.1H4.6A5.98 5.98 0 0115 9a6 6 0 01-4.63 5.84L9.13 13.5l-.04-.05L5.84 10h3.8C10.4 10 11 9.33 11 8.5S10.4 7 9.65 7H4.97a4.5 4.5 0 003.28 6.44l1.29 1.54z" fill="#C12025"/></svg>
